X:296
T:Walking with the King
C:anon.
O:USA
R:Swing
Z:Transcribed by Frank Nordberg - http://www.musicaviva.com
F:http://abc.musicaviva.com/tunes/usa/walking-with-the-king.abc
M:C
L:1/8
Q:1/4=130
K:Eb
zB|eez2d2cB|zB zB c2c2|B2B2 cB zG-|G2z2z4|
B2B2 BB zB-|B2z2 z4|B2B2 cB zG-|G4 z2 zB|
eez2d2cB|zB zB c2c2|B2B2 cB zG-|G2z2zB2B|
B4A4|G2G2 FFzE-|E4z4|z2B2c2d2|
e8|d4c4|B2B2 cB zG-|G2z2z4|
B2B2 BB zB-|B2z2 z4|B2B2 cB zG-|G2z2z4|
e8|d4c4|B2B2 cB zG-|G2z2zB2B|
B4A4|G2G2 FFzE-|E4z4|z2B2c2d2|
W:
W:The Devil tried to get me, but I was walking with the king,
W:walking with the king, walking with the king.
W:The Devil tried to get me, but I was walking with the king,
W:ev'ry day I'm walking with the king.
W:  Sing halleluyah, I'm walking with the king,
W:  walking with the king, walking with the king.
W:  Sing halleluyah, I'm walking with the king,
W:  ev'ry day I'm walking with the king.
W:
W:
W:  From Musica Viva - http://www.musicaviva.com
W:  the Internet center for free sheet music downloads.

